X: 38040
T: Spider's Web, The
R: jig
M: 6/8
K: Gmajor
GBd g2 d|egd BAG|B3 efg|abg fed|
GB/c/d g2 d|egd BAG|B3 cAF|1 DEF G2 F:|2 DEF G3||
bag gfg|bag gfe|def gab|a2 g fed|
bag bag|gfe dBG|B3 cAF|DEF G3:|

